!!!OTL: 358a. Preussisches Kriegslied (l8l4).
!!!ARE: Europa, Mitteleuropa, Deutschland, Schlesien, Breslau
!!!SCT: E0358
!!!TXL: @@DE
!!!YEM: Copyright 1995, estate of Helmut Schaffrath.
**kern	**text
*ICvox	*
*M4/4	*
*met(c)	*
*k[f#]	*
*G:	*
{4d	Früh-
=1	=1
4g	-mor-
4g	-gens
4a	als
4a	der
=2	=2
4b/	Tag
8bL	an-
8aJ	.
4g}	-brach,
{4a	und
=3	=3
4b	als
4b	man
4cc	über
4cc	die
=4	=4
4dd	Fel-
8ddL	-der
8ccJ	.
4b}	ſach,
{4dd	ſo
=5	=5
4ee	ſah
4dd	man
2cc	ſte-
=6	=6
2b	-hen
4r}	.
{4b	bei
=7	=7
4dd	fünf-
4dd	-mal-
4ee	-hun-
4dd	-dert-
=8	=8
8ddL	-tau-
8ccJ	.
8ccL	-ſend
8bJ	.
4a}	Mann,
{4a	die
=9	=9
4b	fien-
4b	-gen
4dd	all
4b	ʒu
=10	=10
8bL	ſeu-
8aJ	.
4a	-ern
4a}	an
{4b	auf
=11	=11
4dd	die
4b	Fran-
2a	-ʒo-
=12	=12
2g	-ſen.
4r}	.
==	==
!!!AGN: historisches Lied, Krieg gegen Napoleon (1814)
!!!ONB: ESAC (Essen Associative Code) Database: ERK1
!!!AMT: simple quadruple
!!!AIN: vox
!!!EED: Helmut Schaffrath
!!!EEV: 1.0
!!!GTL: Historische Lieder
!!!URL-scan: https://rosdok.uni-rostock.de/mcrviewer/recordIdentifier/rosdok_ppn745177662/iview2/phys_0178.iview2?x=-554.0825755873236&y=258.66622589633334&scale=0.46959934367803174&rotation=0&layout=singlePageLayout
!!!ENC: Anna Maria Matuszewska
!!!EEV: 2024/09/12
*-	*-
